X:1
T:Title
%%score 1 ( 2 3 )
L:1/8
Q:1/4=95
M:6/8
K:Bb
V:1 treble nm="Grand Piano, Soprano"
V:2 bass nm="Choir Pad, Happy New Year!"
V:3 bass 
V:1
 [Fd][Ec][DB] [DF]3 | [Fd][Ec][DB] [DF]3 | [DF][DG][B,D] [DF]2 [DB] | [EB]3 .[EA]3 | %4
w: By~Isaac~Hickman~Meredith * * *||||
 [Fe][Fd][Ec] [EA]3 | [Dc][DB][EG] [DF]3 | [CA][Fc][FA] [=EG]2 [EA] | [=EG]3 .F3 | %8
w: ||||
 F[FA][Ac] [Ae]3 | [Ae][Ad][Ac] [FB]3 | BAG ^F2 G | [DA]3 D2 C | [B,E][EG][GB] [Ge]3 | %13
w: |||||
 [DF][FB][Fc] [Fd]3 | [Fd][Fc][FB] [EG]2 [FB] | [Ec]3 [DB]3- | [DB]6 |] %17
w: ||||
V:2
 [B,,B,][B,,B,][B,,B,] [B,,B,]3 | [B,,B,][B,,B,][B,,B,] [B,,B,]3 | %2
 [B,,B,][B,,B,][B,,F,] [B,,B,]2 [B,,F,] | .F,3 z3 | [F,C][F,B,][F,A,] [F,C]3 | z2 .G, z3 | %6
 [C,F,][C,A,][C,C] [C,B,]2 [C,C] | [C,B,]3 .[F,A,]3 | [F,A,][F,C][F,E] [F,C]3 | %9
 [F,C][F,F][F,E] [B,D]3 | B,A,G, ^F,2 G, | [D,^F,]3 .[D,F,]3 | [E,G,][E,B,][E,E] [E,B,]3 | %13
 [B,,B,][D,B,][F,A,] B,3 | [B,,B,][C,A,][D,B,] [E,B,]2 [D,B,] | [F,A,]3 [B,,B,]3- | [B,,B,]6 |] %17
V:3
 x6 | x6 | x6 | C,2- [C,G,] .F,3 | x6 | [B,,B,][B,,F,]B,,/-[B,,A,]/ [B,,B,]3 | x6 | x6 | x6 | x6 | %10
 x6 | x6 | x6 | x6 | x6 | x6 | x6 |] %17

